!!!!SEGMENT: pl-wnifc--13846--102_anonim--piesni-polskie-i-ruskie-ludu-galicyjskiego-102-ty-co-w-stalosc-moje-wierzysz.krn
!!!kernsource:
!!!cenid: 18xx:3324
!!!COM: Anonim
!!!COM-rismID: pe30004985
!!!CDT:
!!!CNT:
!!!GTL: Pieśni polskie i ruskie ludu galicyjskiego
!!!OTL: 102. Ty co w stałość moję wierzysz
!!!PDT: 1833
!!!AGN:
!!!SMS-siglum: PL-Wnifc
!!!SMS-shelfmark: 13846
!!!SMS-shelfwork: 102 G
!!!NIFC-rismSourceID: 1001039212
!!!NIFC-islandoraID:
!!!URL-pdf-islandora:
!!!URL-scan:
!!!ONB-nifc:
!!!OMD: Moderato
!!!AIN: 1 piano 1 vox
!!!key: f
**kern	**kern	**kern	**text
*part2	*part2	*part1	*part1
*staff3	*staff2	*staff1	*staff1
*I"FORTEPIAN.	*I"FORTEPIAN.	*I"GŁOS.	*
*Ipiano	*Ipiano	*Ivox	*
*ICklav	*ICklav	*ICvox	*
*IGacmp	*IGacmp	*IGsolo	*
*clefF4	*clefG2	*clefG2	*
*k[e-b-d-a-]	*k[e-b-d-a-]	*k[e-b-d-a-]	*
*f:	*f:	*f:	*
*M3/4	*M3/4	*M3/4	*
=1-	=1-	=1-	=1-
*^	*	*	*
!LO:TX:t=P:problem=główka nuta na błędnej kresce	!LO:S:s=1:note:problem=note-level slur	!LO:TX:a:t=E.118.:rj	!	!
4e-/	(>8A-\L	8.cc\|L	8.cc\	Ty
.	8E-\J)	.	.	.
.	.	16ddn\|Jk	16ddn\	co
*	*tremolo	*	*	*
!LO:TX:t=P:problem=główka nuta na błędnej kresce	!LO:S:s=1:note:problem=note-level slur	!	!	!
2e-/	(>8G\L	(>8.ee-\^<L	(>8.ee-\L	wsta-
.	8E-\	.	.	.
.	.	16b-\Jk)	16b-\Jk)	.
.	8G\	4b-\	4b-\	-łość
.	8E-\)J	.	.	.
*	*Xtremolo	*	*	*
=2	=2	=2	=2	=2
!	!LO:S:s=1:note:problem=note-level slur	!	!	!
4e-/	(>8G\^L	8.b-\L	8.b-\	mo-
.	8E-\J)	.	.	.
.	.	16cc\Jk	16cc\	-ję
!LO:TX:t=P:problem=główka nuta na błędnej kresce	!	!	!	!
2e-/	8B-\^L	(>8dd-\L	(>8dd-\L	wie-
.	8E-\J	8cc\J)	8cc\J)	.
!	!LO:TX:t=P:problem=mixed beam	!	!	!
.	8A-\^L	4cc\	4cc\	-rzysz,
.	8AA-/J	.	.	.
*v	*v	*	*	*
!!LO:LB:g=original
=3	=3	=3	=3
8c\L 8C\	8cc\L 8a-\ 8f\	8cc\	coś
8B-\J 8BB-\	8een\J 8cc\ 8g\	8een\	dał
(>8A-\L 8AA-\	(>8ff\L 8cc\ 8f\	(>8ff\L	pró-
8G\ 8GG\	8gg\ 8een\ 8cc\ 8g\	8gg\	.
8F\ 8FF\)	8aa-\ 8ff\ 8cc\ 8a-\)	8aa-\J)	.
8A-\J 8AA-\|	8ff\J 8cc\ 8f\|	8ff\	-bę
=4	=4	=4	=4
*^	*	*	*
!LO:N:vis=8	!	!	!	!
!LO:S:s=1:note:problem=note-level slur	!	!	!	!
(<8.En/L	4C\	8.gg\L 8.cc\ 8.g^<\	8.gg\L	ty-
16G/Jk)	.	16een\Jk	16een\Jk	-ra-
4.en/	4.c\	4.cc\ 4.g\	4.cc\	-nii
8r	8ryy	8r	8r	.
!!LO:LB:g=original
=5||	=5||	=5||	=5||	=5||
8AA-/^L	4ryy	(>16cc\LL	(>16cc\LL	ztwą
.	.	16b-\	16b-\	.
8c/J 8A-/	.	16a-\)	16a-/JJ)	.
.	.	16g\|JJ	16g/	mi-
8C/L	4C^\	8a-\|L	(<8a-/	-łoś-
8c/J 8A-/	.	8cc\|J	8cc/)	.
8AA-/L	4AA-^\	4ee-\^<	4ee-\	-cią
8c/J 8A-/	.	.	.	.
*v	*v	*	*	*
=6	=6	=6	=6
!LO:TX:t=P:problem=mixed beam	!	!	!
8EE-/L	(>16ddd-\LL 16dd-\	(>16dd-\LL	ku
.	16ccc\ 16cc\	16cc\	.
8B-\J 8E-\	16bb-\ 16b-\)	16b-\JJ)	.
.	16aa-\JJ 16a-\|	16a-/	mnie
!LO:TX:t=P:problem=mixed beam	!	!	!
8EE-/L	8.gg\L 8.g\	8.g/L	spie-
8B-\J 8G\ 8E-\	.	.	.
.	16bb-\Jk 16b-\	16b-\Jk	.
!LO:TX:t=P:problem=mixed beam	!	!	!
8EEn/L	4ddd-\ 4dd-\	4dd-\	-szysz,
8d-\J 8B-\ 8G\ 8Eny\	.	.	.
!!LO:LB:g=original
=7	=7	=7	=7
!LO:TX:t=P:problem=mixed beam	!	!	!
8FF/L	(>16ccc\LL 16cc\	(>16cc\LL	a
.	16bb-\ 16b-\	16b-\	.
8c\J 8A-\ 8F\	16aa-\ 16a-\)	16a-/JJ)	.
.	16gg\JJ 16g\|	16g/	twa
!LO:TX:t=P:problem=mixed beam	!	!	!
8GG/L	8.ff\L 8.f\	(<8.f/L	zdra-
8c\J 8B-\ 8G\	.	.	.
.	16een\Jk 16en\	16en/Jk)	.
!LO:TX:t=P:problem=mixed beam	!	!	!
8CC/L	8ee\L 8e\	(<8e/L	-da
8B-\J 8G\	8ccc\J 8cc\	8cc/J)	.
=8	=8	=8	=8
8A-\L 8F\	8.ccc\L 8.cc\	(>8.cc\L	mię
!LO:N:vis=8	!	!	!
4B-\J 4G\ 4C\	.	.	.
.	16fff\K 16ff\	16ff\K	.
.	8eeen\J 8een\	8een\J)	ra-
4A-\ 4F\;<	4fff\ 4ff\	4ff\;	-ni.
!LO:N:vis=4	!LO:N:vis=4	!LO:N:vis=4	!
8r	8r	8r	.
==	==	==	==
*-	*-	*-	*-
!!!system-decoration: <s1>{(s2,s3)}
!!!RDF**kern: > = above
!!!RDF**kern: < = below
!!!RDF**kern: | = vertical stroke
!!!ENC: Andrzej Kubiczek
!!!END: 2021-11-11
!!!YEC: Copyright 2022 Narodowy Instytut Fryderyka Chopina (https://polishscores.org)
!!!YEM: Licence CC BY 4.0 (https://creativecommons.org/licenses/by/4.0)
